lib/svgs/unlock.svg

<svg xmlns="http://www.w3.org/2000/svg" viewBox="0 0 20 20">
    <path fill="#000" fill-rule="evenodd" d="M14.3707,8.704 L14.3707,6.371 C14.3707,3.961 12.4097,2 9.9997,2 C7.5897,2 5.6287,3.961 5.6287,6.371 C5.6287,6.702 5.8977,6.971 6.2287,6.971 C6.5607,6.971 6.8297,6.702 6.8297,6.371 C6.8297,4.623 8.2517,3.2 9.9997,3.2 C11.7477,3.2 13.1707,4.623 13.1707,6.371 L13.1707,8.702 L5.6527,8.702 C4.5527,8.702 3.6527,9.602 3.6527,10.702 L3.6527,16 C3.6527,17.1 4.5527,18 5.6527,18 L14.3477,18 C15.4477,18 16.3477,17.1 16.3477,16 L16.3477,10.702 C16.3477,9.609 15.4597,8.717 14.3707,8.704 L14.3707,8.704 Z M15.1477,16 C15.1477,16.434 14.7817,16.8 14.3477,16.8 L5.6527,16.8 C5.2187,16.8 4.8527,16.434 4.8527,16 L4.8527,10.702 C4.8527,10.268 5.2187,9.902 5.6527,9.902 L14.3477,9.902 C14.7817,9.902 15.1477,10.268 15.1477,10.702 L15.1477,16 L15.1477,16 Z M10,12.2552 C9.338,12.2552 8.801,12.7922 8.801,13.4542 C8.801,14.1162 9.338,14.6532 10,14.6532 C10.662,14.6532 11.199,14.1162 11.199,13.4542 C11.199,12.7922 10.662,12.2552 10,12.2552 L10,12.2552 Z"/>
</svg>

<svg xmlns="http://www.w3.org/2000/svg" viewBox="0 0 20 20">
    <path fill="#000" fill-rule="evenodd" d="M14.37 8.704V6.371A4.376 4.376 0 0 0 10 2a4.376 4.376 0 0 0-4.371 4.371.6.6 0 0 0 1.2 0 3.174 3.174 0 0 1 6.342 0v2.331H5.653c-1.1 0-2 .9-2 2V16c0 1.1.9 2 2 2h8.695c1.1 0 2-.9 2-2v-5.298a2.005 2.005 0 0 0-1.977-1.998M15.148 16a.81.81 0 0 1-.8.8H5.653a.81.81 0 0 1-.8-.8v-5.298c0-.434.366-.8.8-.8h8.695c.434 0 .8.366.8.8V16M10 12.255a1.2 1.2 0 1 0 0 2.399 1.2 1.2 0 0 0 0-2.399"/>
</svg>
